blockchains/ethereum/assets/0x297E4e5e59Ad72B1B0A2fd446929e76117be0E0a/logo.svg

<svg fill="none" height="250" viewBox="0 0 250 250" width="250" xmlns="http://www.w3.org/2000/svg"><path d="m124.75 248.197c68.18 0 123.45-55.271 123.45-123.45 0-68.1797-55.27-123.45012-123.45-123.45012-68.1795 0-123.44995 55.27042-123.44995 123.45012 0 68.179 55.27045 123.45 123.44995 123.45z" fill="#d8191e"/><g fill="#fff"><path d="m201.191 52.9579-9.288 21.2399c-.061.1244-.156.2289-.274.3014s-.254.1099-.393.108h-26.585c-.116.0009-.232-.0261-.336-.0789s-.194-.1297-.263-.2244c-.063-.0908-.1-.1977-.105-.3083-.005-.1107.021-.2207.075-.3172l.03-.0492 9.637-21.1338c.059-.1235.152-.2276.268-.3001s.25-.1104.387-.1093h26.183c.115-.0019.229.0236.332.0743.102.0508.192.1254.26.2176.058.0843.095.1812.108.2828.013.1015.002.2047-.032.301"/><path d="m181.319 102.475-82.3818-.121-9.4846-23.3745h48.4734c.303 0 .568-.1896.671-.4777l9.431-24.7008c.044-.1113.06-.2317.047-.3506-.014-.1189-.056-.2328-.123-.3318-.062-.1029-.15-.188-.255-.2471s-.223-.0902-.344-.0903h-94.546c-.1207.0009-.2392.0327-.3441.0925-.1048.0597-.1926.1453-.2549.2487-.0665.0986-.1082.2118-.1214.33-.0132.1181.0024.2378.0456.3486l28.2035 73.917c.1138.273.3791.455.6748.462h63.4045l-17.672 47.825-9.144-24.254c-.048-.139-.138-.26-.259-.346-.12-.085-.264-.131-.412-.131l-26.5656-.031c-.117-.001-.2323.027-.3347.084-.1024.056-.1883.139-.2491.239-.0679.101-.1102.218-.1234.339-.0132.122.0031.244.0476.358l18.8292 49.277c.048.139.138.26.259.346.12.086.264.132.412.131h34.928c.146 0 .288-.044.407-.127.12-.082.212-.199.264-.335l37.184-98.083c.043-.11.059-.229.046-.347-.014-.118-.055-.23-.122-.328-.065-.099-.153-.181-.257-.237-.103-.057-.22-.088-.338-.089"/></g></svg>

<svg width="250" height="250" viewBox="0 0 250 250" fill="none" xmlns="http://www.w3.org/2000/svg">
<path d="M124.75 248.197C192.93 248.197 248.2 192.926 248.2 124.747C248.2 56.5673 192.93 1.29688 124.75 1.29688C56.5705 1.29688 1.30005 56.5673 1.30005 124.747C1.30005 192.926 56.5705 248.197 124.75 248.197Z" fill="#D8191E"/>
<path d="M201.191 52.9579L191.903 74.1978C191.842 74.3222 191.747 74.4267 191.629 74.4992C191.511 74.5717 191.375 74.6091 191.236 74.6072H164.651C164.535 74.6081 164.419 74.5811 164.315 74.5283C164.211 74.4755 164.121 74.3986 164.052 74.3039C163.989 74.2131 163.952 74.1062 163.947 73.9956C163.942 73.8849 163.968 73.7749 164.022 73.6784L164.052 73.6292L173.689 52.4954C173.748 52.3719 173.841 52.2678 173.957 52.1953C174.073 52.1228 174.207 52.0849 174.344 52.086H200.527C200.642 52.0841 200.756 52.1096 200.859 52.1603C200.961 52.2111 201.051 52.2857 201.119 52.3779C201.177 52.4622 201.214 52.5591 201.227 52.6607C201.24 52.7622 201.229 52.8654 201.195 52.9617" fill="white"/>
<path d="M181.319 102.475L98.9372 102.354L89.4526 78.9795H137.926C138.229 78.9795 138.494 78.7899 138.597 78.5018L148.028 53.801C148.072 53.6897 148.088 53.5693 148.075 53.4504C148.061 53.3315 148.019 53.2176 147.952 53.1186C147.89 53.0157 147.802 52.9306 147.697 52.8715C147.592 52.8124 147.474 52.7813 147.353 52.7812H52.807C52.6863 52.7821 52.5678 52.8139 52.4629 52.8737C52.3581 52.9334 52.2703 53.019 52.208 53.1224C52.1415 53.221 52.0998 53.3342 52.0866 53.4524C52.0734 53.5705 52.089 53.6902 52.1322 53.801L80.3357 127.718C80.4495 127.991 80.7148 128.173 81.0105 128.18H144.415L126.743 176.005L117.599 151.751C117.551 151.612 117.461 151.491 117.34 151.405C117.22 151.32 117.076 151.274 116.928 151.274L90.3624 151.243C90.2454 151.242 90.1301 151.27 90.0277 151.327C89.9253 151.383 89.8394 151.466 89.7786 151.566C89.7107 151.667 89.6684 151.784 89.6552 151.905C89.642 152.027 89.6583 152.149 89.7028 152.263L108.532 201.54C108.58 201.679 108.67 201.8 108.791 201.886C108.911 201.972 109.055 202.018 109.203 202.017H144.131C144.277 202.017 144.419 201.973 144.538 201.89C144.658 201.808 144.75 201.691 144.802 201.555L181.986 103.472C182.029 103.362 182.045 103.243 182.032 103.125C182.018 103.007 181.977 102.895 181.91 102.797C181.845 102.698 181.757 102.616 181.653 102.56C181.55 102.503 181.433 102.472 181.315 102.471" fill="white"/>
</svg>
